X: 2
T: Neily Cleere's
M: 2/4
L: 1/8
R: polka
K: Dmix
|: FG |\
A/B/A/^G/ AB | c/B/A F>G | AB c/B/A | GA/G/ FG |
A>^G AB | cA fg/f/ | ed A/G/F | G2 :|
|: f>g |\
a>g fa | ge fg | aa/g/ fa | ga/g/ fg |
a>g f/g/a | ge f2 | ed AF | G2 :|
